<?xml version="1.0" encoding="UTF-8"?>
<map version="1.10" tiledversion="1.12.1" orientation="orthogonal" renderorder="right-down" width="32" height="24" tilewidth="32" tileheight="32" infinite="0" nextlayerid="7" nextobjectid="429">
 <tileset firstgid="1" source="palletes/practicepallete.tsx"/>
 <tileset firstgid="7" source="palletes/Recources.tsx"/>
 <layer id="1" name="Ground" width="32" height="24">
  <data encoding="csv">
3,3,3,3,3,3,3,3,3,3,1,1,1,1,1,1,1,1,1,1,1,1,1,1,1,1,1,1,1,1,1,1,
3,3,3,3,3,3,3,3,3,3,1,1,1,1,1,1,1,1,1,1,1,1,1,1,1,1,1,1,1,1,1,1,
3,3,3,3,3,3,3,3,3,3,1,1,1,1,1,1,1,1,1,1,1,1,1,1,1,1,1,1,1,1,1,1,
3,3,3,3,3,3,3,3,3,1,1,1,1,1,1,1,1,1,1,1,1,1,1,1,1,1,1,1,1,1,1,1,
3,3,3,3,3,3,3,3,1,1,1,1,1,1,1,1,1,1,1,1,1,1,1,1,1,1,1,1,1,1,1,1,
3,3,3,3,3,3,3,3,1,1,1,1,1,1,1,1,1,1,1,1,1,1,1,1,1,1,1,1,1,1,1,1,
3,3,3,1,1,1,1,1,1,1,1,1,1,1,1,1,1,1,1,1,1,1,1,1,1,1,1,1,1,1,1,1,
1,1,1,1,1,1,1,1,1,1,1,1,1,1,1,1,1,1,1,1,1,1,1,1,1,1,1,1,1,1,1,1,
1,1,1,1,1,1,1,1,1,1,1,1,1,1,1,1,1,1,1,1,1,1,1,1,1,1,1,1,1,1,1,1,
1,1,1,1,1,1,1,1,1,1,1,1,1,1,1,1,1,1,1,1,1,1,1,1,1,1,1,1,1,1,1,1,
1,1,1,1,1,1,1,1,1,1,1,1,1,1,1,1,1,1,1,1,1,1,1,1,1,1,1,1,1,1,3,3,
1,1,1,1,1,1,1,1,1,1,1,1,1,1,1,1,1,1,1,1,1,1,1,1,1,1,1,1,1,3,3,3,
1,1,1,1,1,1,1,1,1,1,1,1,1,1,1,1,1,1,1,1,1,1,1,1,1,1,1,1,3,3,3,3,
1,1,1,1,1,1,1,1,1,1,1,1,1,1,1,1,1,1,1,1,1,1,1,1,1,1,1,3,3,3,3,3,
1,1,1,1,1,1,1,1,1,1,1,1,1,1,1,1,1,1,1,1,1,1,1,1,1,1,1,3,3,3,3,3,
1,1,1,1,1,1,1,1,1,1,1,1,1,1,1,1,1,1,1,1,1,1,1,1,1,1,1,3,3,3,3,3,
1,1,1,1,1,1,1,1,1,1,1,1,1,1,1,1,1,1,1,1,1,1,1,1,1,1,1,1,3,3,3,3,
1,1,1,1,1,1,1,1,1,1,1,1,1,1,1,1,1,1,1,1,1,1,1,1,1,1,1,1,1,1,1,1,
1,1,1,1,1,1,1,1,1,1,1,1,1,1,1,1,1,1,1,1,1,1,1,1,1,1,1,1,1,1,1,1,
1,1,1,1,1,1,1,1,1,1,1,1,1,1,1,1,1,1,1,1,1,1,1,1,1,1,1,1,1,1,1,1,
3,3,3,1,1,1,1,1,1,1,1,1,1,1,1,1,1,1,1,1,1,1,1,1,1,1,1,1,1,1,1,1,
3,3,3,3,1,1,1,1,1,1,1,1,1,1,1,1,1,1,1,1,1,1,1,1,1,1,1,1,1,1,1,1,
3,3,3,3,3,1,1,1,1,1,1,1,1,1,1,1,1,1,1,1,1,1,1,1,1,1,1,1,1,1,1,1,
3,3,3,3,3,1,1,1,1,1,1,1,1,1,1,1,1,1,1,1,1,1,1,1,1,1,1,1,1,1,1,1
</data>
 </layer>
 <layer id="4" name="Ground_decoration" width="32" height="24">
  <data encoding="csv">
0,0,0,0,0,0,0,0,0,0,0,0,0,0,0,0,0,0,0,0,0,6,6,6,0,0,0,6,6,6,4,6,
0,0,0,0,0,0,0,0,0,0,5,6,6,6,6,6,6,6,6,6,6,1,6,5,0,0,0,6,6,6,6,5,
0,0,0,0,0,0,0,0,0,0,5,6,0,0,4,1,0,0,6,5,0,5,6,6,6,6,0,5,6,1,6,6,
0,0,0,0,0,0,0,0,0,6,5,6,0,0,0,0,0,0,0,0,0,0,5,6,6,6,0,0,6,6,6,0,
0,0,0,0,0,0,0,0,6,4,6,0,0,0,0,0,0,0,0,0,0,0,6,0,6,0,0,0,6,5,1,6,
0,0,0,0,0,0,0,0,5,6,5,0,0,0,6,1,6,0,6,0,0,0,6,0,6,0,0,0,6,0,0,0,
0,0,0,6,5,4,6,1,5,6,6,6,0,0,6,0,6,4,6,0,0,0,6,6,6,0,0,0,6,5,6,6,
6,6,6,6,6,0,0,0,0,5,6,1,0,0,6,6,6,6,6,0,0,6,5,5,6,6,0,0,0,6,5,5,
0,6,6,6,6,6,0,4,6,6,5,6,0,0,0,0,6,4,1,1,0,6,6,5,0,0,0,0,6,6,0,0,
0,0,6,6,0,6,0,6,6,5,4,6,0,0,0,0,6,0,5,6,0,0,0,0,0,0,0,0,1,0,0,0,
0,0,6,0,0,6,0,5,6,6,1,0,0,0,0,0,4,6,0,5,0,0,0,0,0,0,0,6,6,0,0,0,
0,0,6,1,4,6,6,6,5,6,6,6,0,0,0,0,0,6,6,6,6,6,0,6,6,6,6,6,0,0,0,0,
0,0,0,0,0,0,0,5,6,6,6,6,0,0,0,5,6,6,0,0,0,5,1,6,6,6,0,0,0,0,0,0,
0,0,0,0,0,0,0,0,0,5,6,6,0,0,0,6,6,6,6,5,6,6,6,0,0,6,0,0,0,0,0,0,
6,6,5,6,6,6,5,0,0,6,6,6,0,0,0,0,0,0,0,0,0,0,0,0,0,6,6,0,0,0,0,0,
6,6,6,5,6,5,6,6,0,0,6,6,0,0,0,0,0,6,6,4,6,6,6,0,0,6,6,0,0,0,0,0,
6,0,4,6,6,0,5,6,0,0,0,5,6,5,6,6,4,6,6,6,0,0,6,0,5,5,0,0,0,0,0,0,
6,1,6,0,5,6,6,0,0,0,6,6,6,6,6,0,6,5,4,6,1,0,6,0,6,6,6,0,0,0,0,0,
5,5,6,6,6,6,1,0,0,0,6,0,5,6,6,6,6,1,6,5,5,6,5,0,0,0,5,0,0,0,0,0,
0,0,0,1,5,6,4,0,0,6,6,6,1,6,0,0,6,6,6,4,1,6,6,0,6,5,4,0,0,0,0,0,
0,0,0,6,6,0,1,0,0,6,0,6,6,6,1,6,6,6,6,5,6,5,5,0,0,0,0,0,0,0,0,0,
0,0,0,0,4,6,6,0,0,6,6,6,6,5,6,6,6,5,6,6,6,5,0,0,6,6,6,5,0,0,0,0,
0,0,0,0,0,0,5,0,0,0,0,0,0,0,0,0,0,0,0,0,0,0,0,0,0,6,6,5,0,0,0,0,
0,0,0,0,0,0,6,6,6,5,4,6,6,5,6,4,6,6,6,6,5,6,6,6,6,6,6,6,0,0,0,0
</data>
 </layer>
 <layer id="2" name="Tile Layer" width="32" height="24">
  <data encoding="csv">
0,0,0,0,0,0,0,0,0,0,0,0,0,0,0,0,0,0,0,0,0,0,0,0,0,0,2,0,0,0,0,0,
0,0,0,0,0,0,0,0,0,0,0,0,0,0,0,0,0,0,0,0,0,0,0,0,0,0,2,0,0,0,0,0,
0,0,0,0,0,0,0,0,0,0,0,0,0,0,0,0,0,0,0,0,0,0,0,0,0,0,2,0,0,0,0,0,
0,0,0,0,0,0,0,0,0,0,0,0,0,0,0,0,0,0,0,0,0,0,0,0,0,0,2,0,0,0,0,0,
0,0,0,0,0,0,0,0,0,0,0,0,0,2,2,2,2,2,2,2,2,0,0,0,0,0,2,0,0,0,0,0,
0,0,0,0,0,0,0,0,0,0,0,0,0,2,0,0,0,0,0,0,2,0,0,0,0,0,2,0,0,0,0,0,
0,0,0,0,0,0,0,0,0,0,0,0,0,2,0,0,0,0,0,0,2,0,0,0,0,0,2,0,0,0,0,0,
0,0,0,0,0,0,0,0,0,0,0,0,0,2,0,0,0,0,0,0,2,0,0,0,0,0,2,0,0,0,0,0,
0,0,0,0,0,0,0,0,0,0,0,0,0,2,0,0,0,0,0,0,2,0,0,0,0,0,2,0,0,0,0,0,
0,0,0,0,0,0,0,0,0,0,0,0,0,2,0,0,0,0,0,0,2,2,2,2,2,2,2,0,0,0,0,0,
0,0,0,0,0,0,0,0,0,0,0,0,0,2,0,0,0,0,0,0,0,0,0,0,0,0,0,0,0,0,0,0,
0,0,0,0,0,0,0,0,0,0,0,0,0,2,0,0,0,0,0,0,0,0,0,0,0,0,0,0,0,0,0,0,
0,0,0,0,0,0,0,0,0,0,0,0,0,2,0,0,0,0,0,0,0,0,0,0,0,0,0,0,0,0,0,0,
2,2,2,2,2,2,2,2,2,0,0,0,0,2,0,0,0,0,0,0,0,0,0,0,0,0,0,0,0,0,0,0,
0,0,0,0,0,0,0,0,2,0,0,0,0,2,2,2,2,2,2,2,2,2,2,2,0,0,0,0,0,0,0,0,
0,0,0,0,0,0,0,0,2,0,0,0,0,0,0,0,0,0,0,0,0,0,0,2,0,0,0,0,0,0,0,0,
0,0,0,0,0,0,0,0,2,0,0,0,0,0,0,0,0,0,0,0,0,0,0,2,0,0,0,0,0,0,0,0,
0,0,0,0,0,0,0,0,2,0,0,0,0,0,0,0,0,0,0,0,0,0,0,2,0,0,0,0,0,0,0,0,
0,0,0,0,0,0,0,0,2,0,0,0,0,0,0,0,0,0,0,0,0,0,0,2,0,0,0,0,0,0,0,0,
0,0,0,0,0,0,0,0,2,0,0,0,0,0,0,0,0,0,0,0,0,0,0,2,0,0,0,0,0,0,0,0,
0,0,0,0,0,0,0,0,2,0,0,0,0,0,0,0,0,0,0,0,0,0,0,2,2,2,2,2,2,2,2,2,
0,0,0,0,0,0,0,0,2,0,0,0,0,0,0,0,0,0,0,0,0,0,0,2,0,0,0,0,0,0,0,0,
0,0,0,0,0,0,0,0,2,2,2,2,2,2,2,2,2,2,2,2,2,2,2,2,0,0,0,0,0,0,0,0,
0,0,0,0,0,0,0,0,0,0,0,0,0,0,0,0,0,0,0,0,0,0,0,0,0,0,0,0,0,0,0,0
</data>
 </layer>
 <objectgroup id="6" name="Recources">
  <object id="298" name="tree" type="Recources" gid="7" x="706" y="21" width="32" height="32"/>
  <object id="299" name="tree" type="Recources" gid="7" x="675" y="24" width="32" height="32"/>
  <object id="300" name="tree" type="Recources" gid="7" x="642" y="22" width="32" height="32"/>
  <object id="301" name="tree" type="Recources" gid="7" x="604" y="25" width="32" height="32"/>
  <object id="302" name="tree" type="Recources" gid="7" x="609" y="56" width="32" height="32"/>
  <object id="303" name="tree" type="Recources" gid="7" x="639" y="54" width="32" height="32"/>
  <object id="304" name="tree" type="Recources" gid="7" x="670" y="54" width="32" height="32"/>
  <object id="305" name="tree" type="Recources" gid="7" x="706" y="57" width="32" height="32"/>
  <object id="306" name="tree" type="Recources" gid="7" x="704" y="82" width="32" height="32"/>
  <object id="307" name="tree" type="Recources" gid="7" x="670" y="78" width="32" height="32"/>
  <object id="308" name="tree" type="Recources" gid="7" x="640" y="81" width="32" height="32"/>
  <object id="309" name="tree" type="Recources" gid="7" x="609" y="80" width="32" height="32"/>
  <object id="310" name="tree" type="Recources" gid="7" x="733" y="52" width="32" height="32"/>
  <object id="311" name="tree" type="Recources" gid="7" x="732" y="18" width="32" height="32"/>
  <object id="312" name="tree" type="Recources" gid="7" x="767" y="24" width="32" height="32"/>
  <object id="313" name="tree" type="Recources" gid="7" x="551" y="56" width="32" height="32"/>
  <object id="314" name="tree" type="Recources" gid="7" x="763" y="114" width="32" height="32"/>
  <object id="315" name="tree" type="Recources" gid="7" x="676" y="146" width="32" height="32"/>
  <object id="316" name="tree" type="Recources" gid="7" x="636" y="120" width="32" height="32"/>
  <object id="317" name="tree" type="Recources" gid="7" x="578" y="118" width="32" height="32"/>
  <object id="318" name="tree" type="Recources" gid="7" x="512" y="91" width="32" height="32"/>
  <object id="319" name="tree" type="Recources" gid="7" x="480" y="56" width="32" height="32"/>
  <object id="320" name="tree" type="Recources" gid="7" x="895" y="89" width="32" height="32"/>
  <object id="321" name="tree" type="Recources" gid="7" x="925" y="90" width="32" height="32"/>
  <object id="322" name="tree" type="Recources" gid="7" x="736" y="208" width="32" height="32"/>
  <object id="323" name="tree" type="Recources" gid="7" x="769" y="177" width="32" height="32"/>
  <object id="324" name="tree" type="Recources" gid="7" x="736" y="149" width="32" height="32"/>
  <object id="325" name="tree" type="Recources" gid="7" x="925" y="210" width="32" height="32"/>
  <object id="326" name="tree" type="Recources" gid="7" x="928" y="152" width="32" height="32"/>
  <object id="327" name="tree" type="Recources" gid="7" x="955" y="181" width="32" height="32"/>
  <object id="328" name="tree" type="Recources" gid="7" x="959" y="125" width="32" height="32"/>
  <object id="329" name="tree" type="Recources" gid="7" x="960" y="52" width="32" height="32"/>
  <object id="330" name="tree" type="Recources" gid="7" x="510" y="377" width="32" height="32"/>
  <object id="331" name="tree" type="Recources" gid="7" x="547" y="371" width="32" height="32"/>
  <object id="332" name="tree" type="Recources" gid="7" x="510" y="313" width="32" height="32"/>
  <object id="333" name="tree" type="Recources" gid="7" x="541" y="308" width="32" height="32"/>
  <object id="334" name="tree" type="Recources" gid="7" x="510" y="274" width="32" height="32"/>
  <object id="335" name="tree" type="Recources" gid="7" x="540" y="239" width="32" height="32"/>
  <object id="336" name="tree" type="Recources" gid="7" x="222" y="298" width="32" height="32"/>
  <object id="337" name="tree" type="Recources" gid="7" x="320" y="335" width="32" height="32"/>
  <object id="338" name="tree" type="Recources" gid="7" x="288" y="172" width="32" height="32"/>
  <object id="339" name="tree" type="Recources" gid="7" x="896" y="563" width="32" height="32"/>
  <object id="340" name="tree" type="Recources" gid="7" x="962" y="560" width="32" height="32"/>
  <object id="341" name="tree" type="Recources" gid="7" x="926" y="561" width="32" height="32"/>
  <object id="342" name="tree" type="Recources" gid="7" x="865" y="408" width="32" height="32"/>
  <object id="343" name="tree" type="Recources" gid="7" x="895" y="376" width="32" height="32"/>
  <object id="344" name="tree" type="Recources" gid="7" x="929" y="340" width="32" height="32"/>
  <object id="345" name="tree" type="Recources" gid="7" x="897" y="690" width="32" height="32"/>
  <object id="346" name="tree" type="Recources" gid="7" x="930" y="693" width="32" height="32"/>
  <object id="347" name="tree" type="Recources" gid="7" x="959" y="695" width="32" height="32"/>
  <object id="348" name="tree" type="Recources" gid="7" x="768" y="631" width="32" height="32"/>
  <object id="349" name="tree" type="Recources" gid="7" x="674" y="694" width="32" height="32"/>
  <object id="350" name="tree" type="Recources" gid="7" x="576" y="498" width="32" height="32"/>
  <object id="351" name="tree" type="Recources" gid="7" x="481" y="177" width="32" height="32"/>
  <object id="352" name="tree" type="Recources" gid="7" x="801" y="340" width="32" height="32"/>
  <object id="353" name="tree" type="Recources" gid="7" x="193" y="470" width="32" height="32"/>
  <object id="354" name="tree" type="Recources" gid="7" x="127" y="470" width="32" height="32"/>
  <object id="355" name="tree" type="Recources" gid="7" x="65" y="469" width="32" height="32"/>
  <object id="356" name="tree" type="Recources" gid="7" x="98" y="503" width="32" height="32"/>
  <object id="357" name="tree" type="Recources" gid="7" x="65" y="243" width="32" height="32"/>
  <object id="358" name="tree" type="Recources" gid="7" x="97" y="212" width="32" height="32"/>
  <object id="359" name="tree" type="Recources" gid="7" x="130" y="210" width="32" height="32"/>
  <object id="360" name="tree" type="Recources" gid="7" x="161" y="239" width="32" height="32"/>
  <object id="361" name="tree" type="Recources" gid="7" x="128" y="276" width="32" height="32"/>
  <object id="362" name="tree" type="Recources" gid="7" x="161" y="274" width="32" height="32"/>
  <object id="363" name="tree" type="Recources" gid="7" x="189" y="274" width="32" height="32"/>
  <object id="364" name="tree" type="Recources" gid="7" x="94" y="310" width="32" height="32"/>
  <object id="365" name="tree" type="Recources" gid="7" x="64" y="313" width="32" height="32"/>
  <object id="366" name="tree" type="Recources" gid="7" x="33" y="311" width="32" height="32"/>
  <object id="367" name="tree" type="Recources" gid="7" x="127" y="337" width="32" height="32"/>
  <object id="368" name="tree" type="Recources" gid="7" x="94" y="373" width="32" height="32"/>
  <object id="369" name="tree" type="Recources" gid="7" x="154" y="373" width="32" height="32"/>
  <object id="370" name="tree" type="Recources" gid="7" x="323" y="442" width="32" height="32"/>
  <object id="371" name="tree" type="Recources" gid="7" x="346" y="438" width="32" height="32"/>
  <object id="372" name="tree" type="Recources" gid="7" x="346" y="378" width="32" height="32"/>
  <object id="373" name="tree" type="Recources" gid="7" x="453" y="663" width="32" height="32"/>
  <object id="374" name="tree" type="Recources" gid="7" x="478" y="659" width="32" height="32"/>
  <object id="375" name="tree" type="Recources" gid="7" x="506" y="663" width="32" height="32"/>
  <object id="376" name="tree" type="Recources" gid="7" x="384" y="595" width="32" height="32"/>
  <object id="377" name="tree" type="Recources" gid="7" x="415" y="596" width="32" height="32"/>
  <object id="378" name="tree" type="Recources" gid="7" x="447" y="603" width="32" height="32"/>
  <object id="379" name="tree" type="Recources" gid="7" x="705" y="402" width="32" height="32"/>
  <object id="380" name="tree" type="Recources" gid="7" x="734" y="403" width="32" height="32"/>
  <object id="381" name="tree" type="Recources" gid="7" x="770" y="403" width="32" height="32"/>
  <object id="384" name="stone" type="Recources" gid="8" x="94" y="601" width="32" height="32"/>
  <object id="385" name="stone" type="Recources" gid="8" x="127" y="601" width="32" height="32"/>
  <object id="386" name="stone" type="Recources" gid="8" x="163" y="569" width="32" height="32"/>
  <object id="387" name="stone" type="Recources" gid="8" x="194" y="602" width="32" height="32"/>
  <object id="388" name="stone" type="Recources" gid="8" x="160" y="634" width="32" height="32"/>
  <object id="389" name="stone" type="Recources" gid="8" x="161" y="664" width="32" height="32"/>
  <object id="390" name="stone" type="Recources" gid="8" x="192" y="696" width="32" height="32"/>
  <object id="391" name="stone" type="Recources" gid="8" x="97" y="567" width="32" height="32"/>
  <object id="392" name="stone" type="Recources" gid="8" x="33" y="537" width="32" height="32"/>
  <object id="393" name="stone" type="Recources" gid="8" x="127" y="505" width="32" height="32"/>
  <object id="394" name="stone" type="Recources" gid="8" x="321" y="602" width="32" height="32"/>
  <object id="395" name="stone" type="Recources" gid="8" x="317" y="536" width="32" height="32"/>
  <object id="396" name="stone" type="Recources" gid="8" x="349" y="506" width="32" height="32"/>
  <object id="397" name="stone" type="Recources" gid="8" x="285" y="409" width="32" height="32"/>
  <object id="398" name="stone" type="Recources" gid="8" x="315" y="378" width="32" height="32"/>
  <object id="399" name="stone" type="Recources" gid="8" x="253" y="316" width="32" height="32"/>
  <object id="400" name="stone" type="Recources" gid="8" x="288" y="280" width="32" height="32"/>
  <object id="401" name="stone" type="Recources" gid="8" x="320" y="223" width="32" height="32"/>
  <object id="402" name="stone" type="Recources" gid="8" x="354" y="222" width="32" height="32"/>
  <object id="403" name="stone" type="Recources" gid="8" x="352" y="185" width="32" height="32"/>
  <object id="404" name="stone" type="Recources" gid="8" x="582" y="693" width="32" height="32"/>
  <object id="405" name="stone" type="Recources" gid="8" x="608" y="695" width="32" height="32"/>
  <object id="406" name="stone" type="Recources" gid="8" x="924" y="763" width="32" height="32"/>
  <object id="407" name="stone" type="Recources" gid="8" x="964" y="758" width="32" height="32"/>
  <object id="408" name="stone" type="Recources" gid="8" x="986" y="761" width="32" height="32"/>
  <object id="409" name="stone" type="Recources" gid="8" x="992" y="725" width="32" height="32"/>
  <object id="410" name="stone" type="Recources" gid="8" x="993" y="699" width="32" height="32"/>
  <object id="411" name="stone" type="Recources" gid="8" x="898" y="765" width="32" height="32"/>
  <object id="412" name="stone" type="Recources" gid="8" x="862" y="634" width="32" height="32"/>
  <object id="413" name="stone" type="Recources" gid="8" x="897" y="600" width="32" height="32"/>
  <object id="414" name="stone" type="Recources" gid="8" x="832" y="537" width="32" height="32"/>
  <object id="415" name="stone" type="Recources" gid="8" x="831" y="409" width="32" height="32"/>
  <object id="416" name="stone" type="Recources" gid="8" x="865" y="314" width="32" height="32"/>
  <object id="417" name="stone" type="Recources" gid="8" x="893" y="280" width="32" height="32"/>
  <object id="418" name="stone" type="Recources" gid="8" x="926" y="253" width="32" height="32"/>
  <object id="419" name="stone" type="Recources" gid="8" x="989" y="285" width="32" height="32"/>
  <object id="420" name="stone" type="Recources" gid="8" x="706" y="280" width="32" height="32"/>
  <object id="421" name="stone" type="Recources" gid="8" x="767" y="253" width="32" height="32"/>
  <object id="422" name="stone" type="Recources" gid="8" x="765" y="283" width="32" height="32"/>
  <object id="423" name="stone" type="Recources" gid="8" x="443" y="313" width="32" height="32"/>
  <object id="425" name="stone" type="Recources" gid="8" x="415" y="31" width="32" height="32"/>
  <object id="426" name="stone" type="Recources" gid="8" x="386" y="33" width="32" height="32"/>
  <object id="427" name="stone" type="Recources" gid="8" x="409" y="26" width="32" height="32"/>
 </objectgroup>
</map>
